src/assets/images/icons/svg/bolt.svg

<svg width="64" height="64" viewBox="0 0 64 64" fill="none" xmlns="http://www.w3.org/2000/svg">
<path d="M26.3757 52.7447L44.7523 30.6347H32.8803L35.2323 11.9187L18.557 36.016H28.7437L26.3757 52.7447ZM23.6497 40.4467H14.403C13.4919 40.4467 12.8194 40.0431 12.3857 39.236C11.9519 38.4293 12.0114 37.6449 12.5643 36.8827L35.703 3.48867C36.0799 2.96778 36.551 2.61578 37.1163 2.43267C37.6817 2.24956 38.2468 2.27445 38.8117 2.50733C39.377 2.72956 39.8259 3.10756 40.1583 3.64133C40.4908 4.17467 40.6126 4.73867 40.5237 5.33334L37.8917 26.2047H49.3537C50.3314 26.2047 51.0179 26.6356 51.413 27.4973C51.8086 28.3591 51.7077 29.1658 51.1103 29.9173L25.7557 60.3653C25.3592 60.8373 24.8721 61.1438 24.2943 61.2847C23.7166 61.4256 23.1621 61.3687 22.631 61.114C22.1101 60.87 21.6999 60.4929 21.4003 59.9827C21.1008 59.4729 20.9954 58.9136 21.0843 58.3047L23.6497 40.4467Z" fill="black"/>
</svg>

<svg xmlns="http://www.w3.org/2000/svg" width="64" height="64" fill="none"><path fill="#000" d="m26.376 52.745 18.376-22.11H32.88l2.352-18.716-16.675 24.097h10.187l-2.368 16.729ZM23.65 40.447h-9.247c-.911 0-1.584-.404-2.017-1.211-.434-.807-.375-1.591.178-2.353L35.703 3.489c.377-.521.848-.873 1.413-1.056a2.388 2.388 0 0 1 1.696.074c.565.223 1.014.6 1.346 1.134a2.43 2.43 0 0 1 .366 1.692l-2.632 20.872h11.462c.977 0 1.664.43 2.059 1.292.396.862.295 1.669-.303 2.42L25.756 60.365a2.708 2.708 0 0 1-1.462.92 2.414 2.414 0 0 1-1.663-.171 2.759 2.759 0 0 1-1.23-1.131c-.3-.51-.406-1.07-.317-1.678l2.566-17.858Z"/></svg>
